public/swb_cuissin.svg

<?xml version="1.0"?>
<svg width="24" height="24" xmlns="http://www.w3.org/2000/svg" xmlns:svg="http://www.w3.org/2000/svg" class="icon icon-tabler icons-tabler-outline icon-tabler-cooker" stroke-linejoin="round" stroke-width="2">
 <g class="layer">
  <title>Layer 1</title>
  <path d="m0,0l24,0l0,24l-24,0l0,-24z" fill="#000000" fill-opacity="0" id="svg_1"/>
  <path d="m3.45,3m0,1.99a2.42,1.99 0 0 1 2.42,-1.99l12.11,0a2.42,1.99 0 0 1 2.42,1.99l0,13.92a2.42,1.99 0 0 1 -2.42,1.99l-12.11,0a2.42,1.99 0 0 1 -2.42,-1.99l0,-13.92z" fill="#000000" fill-opacity="0" id="svg_5" stroke="#000000" transform="matrix(1 0 0 1 0 0)"/>
  <ellipse cx="8.65" cy="8.6" fill="#000000" id="svg_12" rx="2.65" ry="2.65" stroke="#000000" stroke-opacity="0"/>
  <ellipse cx="15.05" cy="8.6" fill="#000000" id="svg_13" rx="2.65" ry="2.65" stroke="#000000" stroke-opacity="0"/>
  <ellipse cx="8.65" cy="15.4" fill="#000000" id="svg_15" rx="2.65" ry="2.65" stroke="#000000" stroke-opacity="0" transform="matrix(1 0 0 1 0 0)"/>
  <ellipse cx="15.05" cy="15.4" fill="#000000" id="svg_14" rx="2.65" ry="2.65" stroke="#000000" stroke-opacity="0" transform="matrix(1 0 0 1 0 0)"/>
 </g>
</svg>

<?xml version="1.0" encoding="UTF-8" standalone="no"?>
<svg
   width="1000"
   height="1000"
   class="icon icon-tabler icons-tabler-outline icon-tabler-cooker"
   stroke-linejoin="round"
   stroke-width="2"
   version="1.1"
   id="svg1"
   sodipodi:docname="swb_cuissin.svg"
   viewBox="0 0 24 24"
   inkscape:version="1.4 (86a8ad7, 2024-10-11)"
   xmlns:inkscape="http://www.inkscape.org/namespaces/inkscape"
   xmlns:sodipodi="http://sodipodi.sourceforge.net/DTD/sodipodi-0.dtd"
   xmlns="http://www.w3.org/2000/svg"
   xmlns:svg="http://www.w3.org/2000/svg">
  <defs
     id="defs1" />
  <sodipodi:namedview
     id="namedview1"
     pagecolor="#ffffff"
     bordercolor="#000000"
     borderopacity="0.25"
     inkscape:showpageshadow="2"
     inkscape:pageopacity="0.0"
     inkscape:pagecheckerboard="0"
     inkscape:deskcolor="#d1d1d1"
     inkscape:zoom="0.26269531"
     inkscape:cx="-534.84015"
     inkscape:cy="-241.72491"
     inkscape:window-width="1920"
     inkscape:window-height="1009"
     inkscape:window-x="1912"
     inkscape:window-y="-8"
     inkscape:window-maximized="1"
     inkscape:current-layer="svg1" />
  <g
     class="layer"
     id="g1">
    <title
       id="title1">Layer 1</title>
    <path
       d="M 0,0 H 24 V 24 H 0 Z"
       fill="#000000"
       fill-opacity="0"
       id="svg_1" />
    <path
       d="m 3.45,3 m 0,1.99 A 2.42,1.99 0 0 1 5.87,3 H 17.98 A 2.42,1.99 0 0 1 20.4,4.99 V 18.91 A 2.42,1.99 0 0 1 17.98,20.9 H 5.87 A 2.42,1.99 0 0 1 3.45,18.91 Z"
       fill="#000000"
       fill-opacity="0"
       id="svg_5"
       stroke="#000000" />
    <circle
       cx="8.6499996"
       cy="8.6000004"
       fill="#000000"
       id="svg_12"
       stroke="#000000"
       stroke-opacity="0"
       r="2.6500001" />
    <circle
       cx="15.05"
       cy="8.6000004"
       fill="#000000"
       id="svg_13"
       stroke="#000000"
       stroke-opacity="0"
       r="2.6500001" />
    <circle
       cx="8.6499996"
       cy="15.4"
       fill="#000000"
       id="svg_15"
       stroke="#000000"
       stroke-opacity="0"
       r="2.6500001" />
    <circle
       cx="15.05"
       cy="15.4"
       fill="#000000"
       id="svg_14"
       stroke="#000000"
       stroke-opacity="0"
       r="2.6500001" />
  </g>
</svg>
